svgs/duotone/truck-ramp-box.svg

<svg xmlns="http://www.w3.org/2000/svg" viewBox="0 0 640 512"><!--! Font Awesome Pro 6.4.0 by @fontawesome - https://fontawesome.com License - https://fontawesome.com/license (Commercial License) Copyright 2023 Fonticons, Inc. --><defs><style>.fa-secondary{opacity:.4}</style></defs><path class="fa-primary" d="M544 288c-66.1 0-120.6 50.2-127.3 114.5L48.4 502.9c-17.1 4.6-34.6-5.4-39.3-22.5s5.4-34.6 22.5-39.3L352 353.8V64c0-35.3 28.7-64 64-64H640V331.3c-23.5-26.6-57.8-43.3-96-43.3zM153.9 139.5l20.7 77.3c2.3 8.5-2.8 17.3-11.3 19.6l-30.9 8.3c-8.5 2.3-17.3-2.8-19.6-11.3L92.1 156.1l61.8-16.6z"/><path class="fa-secondary" d="M23.1 207.7c-4.6-17.1 5.6-34.6 22.6-39.2l154.5-41.4c17.1-4.6 34.6 5.6 39.2 22.6l41.4 154.5c4.6 17.1-5.6 34.6-22.6 39.2L103.7 384.9c-17.1 4.6-34.6-5.6-39.2-22.6L23.1 207.7zm69-51.6l20.7 77.3c2.3 8.5 11.1 13.6 19.6 11.3l30.9-8.3c8.5-2.3 13.6-11.1 11.3-19.6l-20.7-77.3L92.1 156.1zM544 320a96 96 0 1 1 0 192 96 96 0 1 1 0-192z"/></svg>

<svg xmlns="http://www.w3.org/2000/svg" viewBox="0 0 640 512"><!--! Font Awesome Pro 6.3.0 by @fontawesome - https://fontawesome.com License - https://fontawesome.com/license (Commercial License) Copyright 2023 Fonticons, Inc. --><defs><style>.fa-secondary{opacity:.4}</style></defs><path class="fa-primary" d="M544 288C477.9 288 423.4 338.2 416.7 402.5L48.41 502.9C31.36 507.5 13.77 497.5 9.126 480.4C4.48 463.4 14.54 445.8 31.59 441.1L352 353.8V64C352 28.65 380.7 0 416 0H640V331.3C616.5 304.8 582.2 288 544 288H544zM174.6 216.8C176.9 225.3 171.8 234.1 163.3 236.4L132.4 244.7C123.9 246.1 115.1 241.9 112.8 233.4L92.1 156.1L153.9 139.5L174.6 216.8z"/><path class="fa-secondary" d="M23.11 207.7C18.54 190.6 28.67 173.1 45.74 168.5L200.3 127.1C217.4 122.5 234.9 132.7 239.5 149.7L280.9 304.3C285.5 321.4 275.3 338.9 258.3 343.5L103.7 384.9C86.64 389.5 69.1 379.3 64.52 362.3L23.11 207.7zM112.8 233.4C115.1 241.9 123.9 246.1 132.4 244.7L163.3 236.4C171.8 234.1 176.9 225.3 174.6 216.8L153.9 139.5L92.1 156.1L112.8 233.4zM448 416C448 362.1 490.1 320 544 320C597 320 640 362.1 640 416C640 469 597 512 544 512C490.1 512 448 469 448 416z"/></svg>
